src/assets/icons/calendar-events,fancy,timeline.svg

<svg width="48" height="48" viewBox="0 0 48 48" fill="none" xmlns="http://www.w3.org/2000/svg">
<g opacity="0.4">
<path d="M10 4C10 2.89543 10.8954 2 12 2C13.1046 2 14 2.89543 14 4V8C14 9.10457 13.1046 10 12 10C10.8954 10 10 9.10457 10 8V4Z" fill="black"/>
<path d="M34 4C34 2.89543 34.8954 2 36 2C37.1046 2 38 2.89543 38 4V8C38 9.10457 37.1046 10 36 10C34.8954 10 34 9.10457 34 8V4Z" fill="black"/>
</g>
<path fill-rule="evenodd" clip-rule="evenodd" d="M10 6.00869C7.52043 6.04456 6.11466 6.22849 5.17157 7.17157C4 8.34315 4 10.2288 4 14V16H44V14C44 10.2288 44 8.34315 42.8284 7.17157C41.8853 6.22849 40.4796 6.04456 38 6.00869V8C38 9.10457 37.1046 10 36 10C34.8954 10 34 9.10457 34 8V6H14V8C14 9.10457 13.1046 10 12 10C10.8954 10 10 9.10457 10 8V6.00869Z" fill="black"/>
<rect x="21" y="28" width="25" height="6" rx="1" fill="black"/>
<rect opacity="0.4" x="2" y="36" width="21" height="6" rx="1" fill="black"/>
<path opacity="0.2" fill-rule="evenodd" clip-rule="evenodd" d="M5.17157 7.17157C4 8.34315 4 10.2288 4 14V36H21C21.9428 36 22.4142 36 22.7071 36.2929C23 36.5858 23 37.0572 23 38V40C23 40.9428 23 41.4142 22.7071 41.7071C22.4142 42 21.9428 42 21 42H4.10149C4.22937 43.3001 4.51839 44.1752 5.17157 44.8284C6.34315 46 8.22876 46 12 46H36C39.7712 46 41.6569 46 42.8284 44.8284C44 43.6569 44 41.7712 44 38V14C44 10.2288 44 8.34315 42.8284 7.17157C41.6569 6 39.7712 6 36 6H12C8.22876 6 6.34315 6 5.17157 7.17157Z" fill="black"/>
<rect opacity="0.6" x="10" y="20" width="18" height="6" rx="1" fill="black"/>
</svg>

<svg xmlns="http://www.w3.org/2000/svg" width="48" height="48" fill="none" viewBox="0 0 48 48">
  <g opacity=".4">
    <path fill="#000" d="M10 4a2 2 0 114 0v4a2 2 0 11-4 0V4zM34 4a2 2 0 114 0v4a2 2 0 11-4 0V4z"/>
  </g>
  <path fill="#000" fill-rule="evenodd" d="M10 6.009c-2.48.036-3.885.22-4.828 1.163C4 8.343 4 10.229 4 14v2h40v-2c0-3.771 0-5.657-1.172-6.828-.943-.944-2.348-1.127-4.828-1.163V8a2 2 0 11-4 0V6H14v2a2 2 0 11-4 0V6.009z" clip-rule="evenodd"/>
  <rect width="25" height="6" x="21" y="28" fill="#000" rx="1"/>
  <rect width="21" height="6" x="2" y="36" fill="#000" opacity=".4" rx="1"/>
  <path fill="#000" fill-rule="evenodd" d="M5.172 7.172C4 8.343 4 10.229 4 14v22h17c.943 0 1.414 0 1.707.293.293.293.293.764.293 1.707v2c0 .943 0 1.414-.293 1.707C22.414 42 21.943 42 21 42H4.101c.128 1.3.417 2.175 1.07 2.828C6.344 46 8.23 46 12 46h24c3.771 0 5.657 0 6.828-1.172C44 43.657 44 41.771 44 38V14c0-3.771 0-5.657-1.172-6.828C41.657 6 39.771 6 36 6H12C8.229 6 6.343 6 5.172 7.172z" clip-rule="evenodd" opacity=".2"/>
  <rect width="18" height="6" x="10" y="20" fill="#000" opacity=".6" rx="1"/>
</svg>
